X:5772
T:Sam Cormier Reel
O:england
M:2/4
L:1/16
C:Denis Lanctót
R:Reel
K:E
GF|E2B,E CEB,E|GBeB AGFG|EG (3GGG Begf|eccB ceBG|
E2B,E CEB,E|GBeB AGFG|EGcG BG (3GGG|FEFG E2:||
a2|:geBA GBeg|fB~B2 fBBa|gfec B2GB|ceBG F2 Fa|
geBA GBeg|fB~B2 fBBg|agfe f2ec|1Bcef geea:|2Bcef geeF||


